X:30
T:The Folly
T:Sheffield Hornpipe
M:4/4
L:1/8
Q:150
R:Hornpipe
N:The Folly is a W.D. location
N:
N:
Z:Brian Martin
K:D
"(Sheffield Hornpipe)"
A>F|D2F>Ad2d>c|B>GB>dA2A>d|c2c>ed2d>f|e>cd>B A>FG>E|!
 D2F>Ad2d>c|B>GB>dA2A>d|B>GB>d c>Ac>e|d2f2d2|]!
c>d|e>cA2A2d>e|f>dA2A2e>f|g4f4|e>dc>B A>FG>E| !
D2F>Ad2d>c|B>GB>dA2A>d|B>GB>d c>Ac>e|d2f2d2:||
